packages/web-icons/svgs/title_deco_right.svg

<svg viewBox="0 0 84 24" xmlns="http://www.w3.org/2000/svg" class="ridi_icon"><path d="M11.7 9.9c-3.5 0-7.1 2.7-7.1 6 0 1.3.4 2.6 1.5 3.4.5.5.5 1.1-.1 1.9-.7.9-1.8 1.5-2.9 1.5-1.3 0-3.1-1.3-3.1-3.8 0-1.4.9-4.4 4.3-7.2 3.6-2.9 6.8-3.9 10.3-4.1C22.2 1.2 28.3 0 32.8 0c4.8 0 9.2 1.6 11.4 2.6 2 .8 9.6 4.1 15 6.6 5.7 2.5 10.5 4 13.9 4 2.7 0 6.5-1 6.5-4.5 0-1.3-.5-2.2-1.2-2.7-.4-.3-.7-.8-.7-1.2 0-1.3 1.1-3.2 3-3.2 2.1 0 3.3 2.3 3.3 4 0 4.6-4.8 7.8-8 9.2-6 6.5-12 9.2-17.8 9.2-4.3 0-8.4-1.2-13.8-3.3-4.1-1.6-17-7.1-22.1-8.9-4.8-1.5-7.5-1.9-10.6-1.9zm16.6-7.4c-4 0-7.7 2.1-9.6 5.2 2.3 0 5.7.5 11.3 2.7 5.6 2 16 6.7 19.6 8 4 1.4 7.9 2.6 11.7 2.6 4.3 0 8.1-1.5 10.2-5.3-4 .5-7.8-.1-13.4-2.4-4.3-1.7-16-7.4-20-8.9-3.2-1.2-6.5-1.9-9.8-1.9z"/></svg>

<?xml version="1.0" encoding="UTF-8"?>
<svg width="84px" height="24px" viewBox="0 0 84 24" version="1.1" xmlns="http://www.w3.org/2000/svg">
  <!-- Generator: Sketch 41.2 (35397) - http://www.bohemiancoding.com/sketch -->
  <title>title_deco_right</title>
  <desc>Created with Sketch.</desc>
  <defs></defs>
  <g id="Page-1" stroke="none" stroke-width="1" fill="none" fill-rule="evenodd">
    <g id="title_deco_right" fill="#000000">
      <g id="레이어_1">
        <path d="M11.7,9.9 C8.2,9.9 4.6,12.6 4.6,15.9 C4.6,17.2 5,18.5 6.1,19.3 C6.6,19.8 6.6,20.4 6,21.2 C5.3,22.1 4.2,22.7 3.1,22.7 C1.8,22.7 0,21.4 0,18.9 C0,17.5 0.9,14.5 4.3,11.7 C7.9,8.8 11.1,7.8 14.6,7.6 C22.2,1.2 28.3,0 32.8,0 C37.6,0 42,1.6 44.2,2.6 C46.2,3.4 53.8,6.7 59.2,9.2 C64.9,11.7 69.7,13.2 73.1,13.2 C75.8,13.2 79.6,12.2 79.6,8.7 C79.6,7.4 79.1,6.5 78.4,6 C78,5.7 77.7,5.2 77.7,4.8 C77.7,3.5 78.8,1.6 80.7,1.6 C82.8,1.6 84,3.9 84,5.6 C84,10.2 79.2,13.4 76,14.8 C70,21.3 64,24 58.2,24 C53.9,24 49.8,22.8 44.4,20.7 C40.3,19.1 27.4,13.6 22.3,11.8 C17.5,10.3 14.8,9.9 11.7,9.9 L11.7,9.9 Z M28.3,2.5 C24.3,2.5 20.6,4.6 18.7,7.7 C21,7.7 24.4,8.2 30,10.4 C35.6,12.4 46,17.1 49.6,18.4 C53.6,19.8 57.5,21 61.3,21 C65.6,21 69.4,19.5 71.5,15.7 C67.5,16.2 63.7,15.6 58.1,13.3 C53.8,11.6 42.1,5.9 38.1,4.4 C34.9,3.2 31.6,2.5 28.3,2.5 L28.3,2.5 L28.3,2.5 Z" id="Shape"></path>
      </g>
    </g>
  </g>
</svg>
